lib/flags/m/CN.svg

<svg xmlns="http://www.w3.org/2000/svg" fill="none" viewBox="0 0 20 15"><mask id="CN_svg__a" width="20" height="15" x="0" y="0" mask-type="alpha" maskUnits="userSpaceOnUse"><path fill="#fff" d="M0 0H20V15H0z"/></mask><g fill-rule="evenodd" clip-rule="evenodd" mask="url(#CN_svg__a)"><path fill="#E31D1C" d="M0 0H20V15H0V0Z"/><path fill="#FECA00" d="M4.44621 6.09707 2.01289 8.00422 2.94206 5.12008 1.31934 3.62038 3.51659 3.53929 4.44621 1.21777 5.37582 3.53929H7.56934L5.95035 5.12008 6.68788 8.00422 4.44621 6.09707zM9.38521 3.85743 8.36414 4.47385 8.59704 3.27097 7.74673 2.37073 8.8981 2.32205 9.38521 1.19885 9.87233 2.32205H11.0217L10.1734 3.27097 10.4288 4.47385 9.38521 3.85743z"/><path fill="#FECA00" d="M10.6352 6.35743L9.61414 6.97385L9.84704 5.77097L8.99673 4.87073L10.1481 4.82205L10.6352 3.69885L11.1223 4.82205H12.2717L11.4234 5.77097L11.6788 6.97385L10.6352 6.35743Z"/><path fill="#FECA00" d="M9.38521 8.85743L8.36414 9.47385L8.59704 8.27097L7.74673 7.37073L8.8981 7.32205L9.38521 6.19885L9.87233 7.32205H11.0217L10.1734 8.27097L10.4288 9.47385L9.38521 8.85743Z"/><path fill="#FECA00" d="M6.88521 10.1074L5.86414 10.7239L6.09704 9.52097L5.24673 8.62073L6.3981 8.57205L6.88521 7.44885L7.37233 8.57205H8.52173L7.67339 9.52097L7.92879 10.7239L6.88521 10.1074Z"/></g></svg>

<svg xmlns="http://www.w3.org/2000/svg" fill="none" viewBox="0 0 20 15"><mask id="CN_svg__a" width="20" height="15" x="0" y="0" maskUnits="userSpaceOnUse"><path fill="#fff" d="M0 0h20v15H0z"/></mask><g fill-rule="evenodd" clip-rule="evenodd" mask="url(#CN_svg__a)"><path fill="#E31D1C" d="M0 0h20v15H0V0z"/><path fill="#FECA00" d="M4.446 6.097L2.013 8.004l.93-2.884-1.624-1.5 2.198-.08.93-2.322.929 2.321h2.193L5.95 5.12l.738 2.884-2.242-1.907zm4.939-2.24l-1.02.617.232-1.203-.85-.9 1.151-.049.487-1.123.487 1.123h1.15l-.849.949.256 1.203-1.044-.617z"/><path fill="#FECA00" d="M10.635 6.357l-1.02.617.232-1.203-.85-.9 1.151-.049.487-1.123.487 1.123h1.15l-.849.949.256 1.203-1.044-.617z"/><path fill="#FECA00" d="M9.385 8.857l-1.02.617.232-1.203-.85-.9 1.151-.049.487-1.123.487 1.123h1.15l-.849.949.256 1.203-1.044-.617z"/><path fill="#FECA00" d="M6.885 10.107l-1.02.617.232-1.203-.85-.9 1.151-.049.487-1.123.487 1.123h1.15l-.849.949.256 1.203-1.044-.617z"/></g></svg>
